X: 25423
T: March Of The One-Legged Dog
R: jig
M: 6/8
K: Gmajor
G|Bgf de(B|{d}B)gB d2 (B|{d}B)gf deB|(ef/e/)d (Bc/B/A)|
Bgf de(B|{d}B)gB d2 B|(e/f/ge) fd(B|{d}B)gB d2 B||
(Bc/B/A) BcA|(Bc/B/)G efd|fge fdc|BgB d2 B|
(Bc/B/A) BcA|(Bc/B/)G efd|(e/f/ge) fdc|(Bc/B/A) (Bc/B/A)||
(Bc/B/A) (Bc/B/A)|(Bc/B/A) BcA|(Bc/B/A) (Bc/B/A)|fgd efd|
(Bc/B/A) (Bc/B/A)|(Bc/B/A) BcA|(Bc/B/)G (e/f/g/e/)d/c/|BgB A2||

